Adwaita++-Dark/actions/22/labplot-xy-plot-two-axes-centered-origin.svg

<svg height="22" viewBox="0 0 22 22" width="22" xmlns="http://www.w3.org/2000/svg">
  <path d="m13.720703 0-1.726562 2.9902344v2.0097656h-3.0000004l-1 1v-5h-1v5.9941406l-.0058594.0058594h.0058594l-1.0019531 1h-5.99804688v1h4.99609378l-.9960938.9980469-1 .9980471v4.003906h-2.99999998v1h3.99999998v-4.589844l.4101563-.410156h.0019531l2-2h.5878906v7h1v-7h7.0000004v-1h-7.0000004v-.5878906l1.4121094-1.4121094h3.587891v-2.7421875l1.302734-2.2578125h1.697266v-1z" fill="#e6ddff" transform="translate(3 3)"/>
</svg>

<svg xmlns="http://www.w3.org/2000/svg" width="22" height="22" viewBox="0 0 22 22">
 <defs>
  <style id="current-color-scheme" type="text/css">
   .ColorScheme-Text { color:#E6DDFF; } .ColorScheme-Highlight { color:#4285f4; }
  </style>
 </defs>
 <path style="fill:currentColor" class="ColorScheme-Text" d="M 13.720703 0 L 11.994141 2.9902344 L 11.994141 5 L 8.9941406 5 L 7.9941406 6 L 7.9941406 1 L 6.9941406 1 L 6.9941406 6.9941406 L 6.9882812 7 L 6.9941406 7 L 5.9921875 8 L -0.005859375 8 L -0.005859375 9 L 4.9902344 9 L 3.9941406 9.9980469 L 2.9941406 10.996094 L 2.9941406 15 L -0.005859375 15 L -0.005859375 16 L 3.9941406 16 L 3.9941406 11.410156 L 4.4042969 11 L 4.40625 11 L 6.40625 9 L 6.9941406 9 L 6.9941406 16 L 7.9941406 16 L 7.9941406 9 L 14.994141 9 L 14.994141 8 L 7.9941406 8 L 7.9941406 7.4121094 L 9.40625 6 L 12.994141 6 L 12.994141 3.2578125 L 14.296875 1 L 15.994141 1 L 15.994141 0 L 13.720703 0 z" transform="translate(3 3)"/>
</svg>
